X: 10703
M: 2/4
L: 1/16
K: D
(f>a) |\
"^>"d6 (f>a) | "^>"d4- d>AA>A | ("^>"f3e/d/) ("^>"f3e/d/) | ("^>"fed)z z2F>A |\
"^>"D6 F>A | "^>"D4 D>Ad>f | a2f>d e>de>f | d2f2d2 H|]
!p!A>^GA>B A2d2 | f4 d2d2 | e>^de>f e>=dc>e | d2fd A2F>G & d/>c/d/>e/ f/c/d/B/ A2F>G |\
!p!D>E |\
!f![ec]A[ge]A cA[ge]A | [fd]A[af]A [fd]A[af]A | eAag fedc | d>dA>F "^D.C."D2 |]



